X:1
T:Weston, 87.87 D
T:Weston, 87.87 D
T:John Edward Roe (1838-1871)
T:Public Domain Courtesy of the Cyber Hymnal™
C:John Edward Roe (1838-1871)
Z:Public Domain
Z:Courtesy of the Cyber Hymnal™
%%score ( 1 2 ) ( 3 4 )
L:1/8
Q:1/4=110
M:4/4
K:F
V:1 treble 
V:2 treble 
V:3 bass 
V:4 bass 
V:1
 [FA]3 [FA] [FB]2 [FA]2 | [FG]3 [FA] [EG]2 [CF]2 | [FA]2 [Fc]2 [Ac]2 [GB]2 | D2 [FA]2 [EG]4 | %4
 [FA]3 [FA] [FB]2 [FA]2 | [FG]3 [FA] [EG]2 [CF]2 | [FA]2 [Fc]2 [Fc]3 [FB] x | A3 z G [CF]4 | %8
 [CE]3 [DF] [CE]2 [EA]2 | [Ec]3 [D=B] [DB]2 [CA]2 | [FG]3 [FA] [FG]2 [F=B]2 x | %11
 [Fe]3 [Fd] (c2 B2) | [FA]3 [FA] [FB]2 [FA]2 | [FG]3 [FG] [DF]2 [B,E]2 | [FA]2 [Fc]2 [Fc]3 [FB] x | %15
 A3 z G [CF]4 |] %16
V:2
 x8 | x8 | x8 | D2 x6 | x8 | x8 | x9 | F2 E2 x5 | x8 | x8 | x9 | x4 E4 | x8 | x8 | x9 | F2 E2 x5 |] %16
V:3
 [F,C]3 [F,C] [F,D]2 [F,C]2 | [F,B,]3 [F,C] [F,B,]2 [F,A,]2 | [F,C]2 [A,,C]2 [B,,D]2 [B,,D]2 | %3
 [G,,B,]2 [G,,=B,]2 [C,C]4 | [F,C]3 [F,C] [F,D]2 [F,C]2 | [F,B,]3 [F,C] [F,B,]2 [F,A,]2 | %6
 [F,C]2 [F,,F,_E]2 E3 z D | [C,C]2 [C,B,]2 [F,A,]4 x | [A,,A,]3 [A,,A,] [A,,A,]2 [C,A,]2 | %9
 [E,A,]3 [E,^G,] [E,G,]2 [F,A,]2 | =B,3 z C [G,,B,]2 [G,,G,]2 | [G,=B,]3 [G,B,] [C,C]4 | %12
 [F,C]3 [F,C] [F,D]2 [F,C]2 | [F,B,]3 [F,C] [F,B,]2 [F,A,]2 | [F,C]2 [F,,F,_E]2 E3 z D | %15
 [C,C]2 [C,B,]2 [F,A,]4 x |] %16
V:4
 x8 | x8 | x8 | x8 | x8 | x8 | x4 A,,2 B,,2 x | x9 | x8 | x8 | G,2 D,2 x5 | x8 | x8 | x8 | %14
 x4 G,,2 B,,2 x | x9 |] %16

